src/sources/forus-platform/resources/_platform-common/assets/img/features/icons/auth-2-fa/icon-2.svg

<svg width="59" height="58" viewBox="0 0 59 58" fill="none" xmlns="http://www.w3.org/2000/svg">
    <rect x="0.5" width="58" height="58" rx="8" fill="#F7F9FC"/>
    <path d="M41.4554 29C41.4554 28.5292 41.4279 28.0648 41.3747 27.6083C41.3063 27.0213 41.5389 26.4392 41.9832 26.0494L43.8123 24.4448C44.4331 23.9001 44.5725 22.9881 44.143 22.2828L42.1868 19.0712C41.7572 18.3659 40.8828 18.0714 40.1141 18.3732L37.8341 19.268C37.2822 19.4846 36.662 19.4088 36.1704 19.0775C35.6422 18.7217 35.084 18.407 34.5005 18.1379C33.9635 17.8902 33.578 17.4004 33.4761 16.8179L33.0547 14.4071C32.9124 13.5936 32.2061 13 31.3803 13H27.6198C26.794 13 26.0876 13.5936 25.9455 14.4071L25.524 16.8178C25.4222 17.4003 25.0366 17.8902 24.4996 18.1378C23.9161 18.4069 23.3579 18.7217 22.8297 19.0775C22.3381 19.4087 21.7178 19.4845 21.166 19.268L18.8859 18.3731C18.1172 18.0714 17.2428 18.3659 16.8133 19.0711L14.8571 22.2828C14.4276 22.9881 14.5671 23.9001 15.1879 24.4447L17.0169 26.0493C17.4612 26.4391 17.6938 27.0212 17.6254 27.6082C17.5722 28.0648 17.5447 28.5292 17.5447 28.9999C17.5447 29.4707 17.5722 29.9351 17.6254 30.3916C17.6938 30.9787 17.4612 31.5607 17.0169 31.9505L15.1879 33.5552C14.5671 34.0998 14.4276 35.0118 14.8571 35.7171L16.8133 38.9287C17.2428 39.634 18.1173 39.9285 18.8859 39.6267L21.166 38.7319C21.7178 38.5153 22.3381 38.5912 22.8297 38.9224C23.3578 39.2782 23.916 39.5929 24.4996 39.862C25.0365 40.1097 25.4221 40.5995 25.5239 41.182L25.9454 43.5928C26.0876 44.4064 26.794 44.749 27.6198 44.749H31.3803C32.2061 44.749 32.9124 44.4064 33.0546 43.5929L33.4761 41.1821C33.5779 40.5997 33.9635 40.1098 34.5004 39.8622C35.084 39.5931 35.6422 39.2783 36.1703 38.9225C36.662 38.5913 37.2822 38.5155 37.834 38.732L40.1141 39.6269C40.8828 39.9286 41.7572 39.6341 42.1867 38.9288L44.1429 35.7172C44.5724 35.0119 44.4329 34.0999 43.8121 33.5553L41.9831 31.9506C41.5388 31.5609 41.3062 30.9788 41.3746 30.3917C41.4279 29.9351 41.4554 29.4708 41.4554 29Z" fill="#0A33C1"/>
    <path d="M29.5 38.7726C34.8973 38.7726 39.2726 34.3973 39.2726 29C39.2726 23.6028 34.8973 19.2274 29.5 19.2274C24.1028 19.2274 19.7274 23.6028 19.7274 29C19.7274 34.3973 24.1028 38.7726 29.5 38.7726Z" fill="#305DFC"/>
    <path opacity="0.3" d="M31.3803 45C32.2061 45 32.9124 44.4064 33.0546 43.5929L33.4761 41.1821C33.5779 40.5997 33.9635 40.1098 34.5005 39.8622C35.084 39.593 35.6422 39.2783 36.1704 38.9225C36.662 38.5913 37.2823 38.5155 37.8341 38.732L40.1141 39.6269C40.8828 39.9286 41.7572 39.6341 42.1867 38.9288L44.1429 35.7172C44.5724 35.0119 44.433 34.0999 43.8122 33.5553L41.9831 31.9506C41.5388 31.5609 41.3062 30.9788 41.3746 30.3917C41.4065 30.118 41.428 29.8412 41.441 29.5622L35.4176 23.5388C35.0428 23.1329 34.627 22.7656 34.1764 22.4437C33.8125 22.1837 33.3067 22.4471 33.3067 22.8943V28.2096C33.3067 28.7589 33.057 29.272 32.6388 29.6124C32.5599 29.5366 25.6259 22.6147 25.5681 22.5448C25.3947 22.3351 25.0729 22.3909 24.8193 22.5723C22.7738 24.0357 21.5679 26.3073 21.5728 29.0149C21.5769 31.3459 22.4425 33.4407 24.0244 34.9073L25.7562 36.6452L25.8189 40.6889C25.8189 41.6624 25.7777 42.6341 25.9454 43.5931C26.0877 44.4064 26.794 45 27.6198 45H31.3803Z" fill="url(#paint0_linear_735_37035)"/>
    <path opacity="0.3" d="M44.1428 35.7169L42.187 38.9288C41.7572 39.634 40.8826 39.9283 40.1139 39.6271L37.8338 38.7318C37.2823 38.5153 36.6617 38.5912 36.1704 38.9225C35.6421 39.2783 35.0837 39.5933 34.5001 39.8624C33.9637 40.1097 33.5778 40.5997 33.4761 41.182L33.0545 43.5933C32.9121 44.4064 32.2062 44.8118 31.3805 44.8118H27.6195C27.2066 44.8118 26.8239 44.6637 26.5265 44.4133C26.3746 44.286 26.2454 44.3205 26.1456 44.1467C26.396 44.291 26.6859 44.3726 26.9921 44.3726H30.753C31.5787 44.3726 32.2846 43.779 32.427 42.9658C32.5105 42.4864 32.5739 42.0033 32.6159 41.5189C32.6579 41.0345 32.6793 40.5476 32.6793 40.0613V35.4703C35.2067 34.1118 36.9252 31.4427 36.9252 28.3726C36.9252 26.3114 36.151 24.4309 34.8766 23.0066C35.0655 23.1747 35.2456 23.3523 35.4175 23.5387L41.441 29.5622C41.4278 29.8414 41.4065 30.1181 41.3745 30.3917C41.3061 30.979 41.5389 31.5606 41.9831 31.9509L43.8121 33.5553C44.4327 34.0999 44.5726 35.0116 44.1428 35.7169Z" fill="url(#paint1_linear_735_37035)"/>
    <path d="M33.0546 43.5929C33.2223 42.6339 33.3065 41.6622 33.3065 40.6887V34.0405H25.6935V40.6887C25.6935 41.6622 25.7777 42.6339 25.9454 43.5929C26.0876 44.4064 26.794 45 27.6198 45H31.3803C32.2061 45 32.9124 44.4064 33.0546 43.5929Z" fill="#E6ECFF"/>
    <path opacity="0.3" d="M25.6935 36.1001L33.0731 43.4797C33.2279 42.5575 33.3065 41.624 33.3065 40.6887V34.0405H25.6935V36.1001Z" fill="url(#paint2_linear_735_37035)"/>
    <path d="M37.5527 29C37.5527 33.4474 33.9474 37.0526 29.5 37.0527C25.0527 37.0528 21.4552 33.4621 21.4473 29.0147C21.4424 26.3072 22.7738 23.9101 24.8193 22.4467C25.1848 22.1851 25.6932 22.4449 25.6932 22.8943V28.2095C25.6932 28.8559 26.038 29.4532 26.5978 29.7765L28.5952 30.9297C29.1551 31.253 29.8448 31.253 30.4047 30.9297L32.4021 29.7765C32.9619 29.4533 33.3067 28.8559 33.3067 28.2095V22.8942C33.3067 22.447 33.8126 22.1837 34.1764 22.4436C36.2207 23.9041 37.5527 26.2966 37.5527 29Z" fill="#E6ECFF"/>
    <path opacity="0.7" d="M23.5407 29.6783C23.5407 30.6902 24.0806 31.6253 24.9569 32.1313L28.0837 33.9366C28.9601 34.4427 30.04 34.4427 30.9164 33.9366L34.0432 32.1313C34.9195 31.6253 35.4594 30.6902 35.4594 29.6783V23.5851C35.0738 23.161 34.644 22.7777 34.1765 22.4436C33.8127 22.1837 33.3068 22.447 33.3068 22.8942V28.2095C33.3068 28.8559 32.962 29.4533 32.4021 29.7765L30.4048 30.9298C29.8449 31.253 29.1551 31.253 28.5953 30.9298L26.5979 29.7765C26.0381 29.4533 25.6932 28.856 25.6932 28.2095V22.8944C25.6932 22.4449 25.1849 22.1852 24.8193 22.4467C24.3534 22.78 23.9251 23.1622 23.5406 23.585V29.6783H23.5407Z" fill="#C4D1FF"/>
    <defs>
        <linearGradient id="paint0_linear_735_37035" x1="32.9819" y1="22.3409" x2="32.9819" y2="45" gradientUnits="userSpaceOnUse">
            <stop stop-color="#0A33C1"/>
            <stop offset="1" stop-color="#0A33C1" stop-opacity="0"/>
        </linearGradient>
        <linearGradient id="paint1_linear_735_37035" x1="35.2683" y1="23.0066" x2="35.2683" y2="44.8118" gradientUnits="userSpaceOnUse">
            <stop stop-color="#0A33C1"/>
            <stop offset="1" stop-color="#0A33C1" stop-opacity="0"/>
        </linearGradient>
        <linearGradient id="paint2_linear_735_37035" x1="29.5" y1="34.0405" x2="29.5" y2="43.4797" gradientUnits="userSpaceOnUse">
            <stop stop-color="#0A33C1"/>
            <stop offset="1" stop-color="#0A33C1" stop-opacity="0"/>
        </linearGradient>
    </defs>
</svg>

<svg width="59" height="58" fill="none" xmlns="http://www.w3.org/2000/svg"><rect x=".5" width="58" height="58" rx="8" fill="#F7F9FC"/><path d="M41.455 29c0-.47-.027-.935-.08-1.392a1.802 1.802 0 0 1 .608-1.559l1.83-1.604a1.7 1.7 0 0 0 .33-2.162l-1.956-3.212a1.7 1.7 0 0 0-2.073-.698l-2.28.895a1.8 1.8 0 0 1-1.664-.19 11.938 11.938 0 0 0-1.67-.94 1.798 1.798 0 0 1-1.024-1.32l-.421-2.41A1.7 1.7 0 0 0 31.38 13h-3.76a1.7 1.7 0 0 0-1.675 1.407l-.421 2.41a1.798 1.798 0 0 1-1.024 1.32c-.584.27-1.142.585-1.67.94a1.8 1.8 0 0 1-1.664.191l-2.28-.895a1.7 1.7 0 0 0-2.073.698l-1.956 3.212a1.7 1.7 0 0 0 .33 2.162l1.83 1.604c.444.39.677.972.608 1.56a12.022 12.022 0 0 0 0 2.783 1.802 1.802 0 0 1-.608 1.559l-1.83 1.604a1.7 1.7 0 0 0-.33 2.162l1.956 3.212a1.7 1.7 0 0 0 2.073.698l2.28-.895a1.8 1.8 0 0 1 1.664.19c.528.356 1.086.67 1.67.94.537.248.922.737 1.024 1.32l.421 2.41c.143.814.849 1.157 1.675 1.157h3.76c.826 0 1.532-.343 1.675-1.156l.421-2.41a1.798 1.798 0 0 1 1.024-1.32c.584-.27 1.142-.585 1.67-.94a1.8 1.8 0 0 1 1.664-.191l2.28.895a1.7 1.7 0 0 0 2.073-.698l1.956-3.212a1.7 1.7 0 0 0-.33-2.162l-1.83-1.604a1.802 1.802 0 0 1-.608-1.56c.053-.456.08-.92.08-1.391Z" fill="#0A33C1"/><path d="M29.5 38.773c5.397 0 9.773-4.376 9.773-9.773 0-5.397-4.376-9.773-9.773-9.773-5.397 0-9.773 4.376-9.773 9.773 0 5.397 4.376 9.773 9.773 9.773Z" fill="#305DFC"/><path opacity=".3" d="M31.38 45a1.7 1.7 0 0 0 1.675-1.407l.421-2.41a1.798 1.798 0 0 1 1.025-1.32c.583-.27 1.141-.585 1.67-.94a1.8 1.8 0 0 1 1.663-.191l2.28.895a1.7 1.7 0 0 0 2.073-.698l1.956-3.212a1.7 1.7 0 0 0-.33-2.162l-1.83-1.604a1.802 1.802 0 0 1-.608-1.56c.032-.273.053-.55.066-.829l-6.023-6.023a8.093 8.093 0 0 0-1.242-1.095.551.551 0 0 0-.87.45v5.316c0 .549-.249 1.062-.667 1.402-.08-.075-7.013-6.997-7.07-7.067-.174-.21-.496-.154-.75.027-2.045 1.464-3.251 3.735-3.246 6.443.004 2.33.87 4.426 2.451 5.892l1.732 1.738.063 4.044c0 .973-.041 1.945.126 2.904A1.7 1.7 0 0 0 27.62 45h3.76Z" fill="url(#a)"/><path opacity=".3" d="m44.143 35.717-1.956 3.212c-.43.705-1.304 1-2.073.698l-2.28-.895a1.799 1.799 0 0 0-1.664.19c-.528.356-1.086.671-1.67.94a1.797 1.797 0 0 0-1.024 1.32l-.422 2.411c-.142.813-.848 1.219-1.674 1.219h-3.76c-.413 0-.796-.148-1.094-.399-.151-.127-.28-.092-.38-.266.25.144.54.226.846.226h3.761a1.7 1.7 0 0 0 1.674-1.407 16.988 16.988 0 0 0 .252-2.905v-4.59a8.052 8.052 0 0 0 4.246-7.098 8.02 8.02 0 0 0-2.048-5.366c.188.168.369.345.54.532l6.024 6.023c-.013.28-.035.556-.067.83a1.803 1.803 0 0 0 .61 1.559l1.828 1.604a1.7 1.7 0 0 1 .33 2.162Z" fill="url(#b)"/><path d="M33.055 43.593c.167-.96.252-1.93.252-2.904V34.04h-7.614v6.648c0 .973.085 1.945.252 2.904A1.7 1.7 0 0 0 27.62 45h3.76a1.7 1.7 0 0 0 1.675-1.407Z" fill="#E6ECFF"/><path opacity=".3" d="m25.694 36.1 7.38 7.38a16.86 16.86 0 0 0 .233-2.791V34.04h-7.614v2.06Z" fill="url(#c)"/><path d="M37.553 29a8.053 8.053 0 0 1-8.053 8.053 8.045 8.045 0 0 1-8.053-8.038 8.042 8.042 0 0 1 3.372-6.568.552.552 0 0 1 .874.447v5.316c0 .646.345 1.243.905 1.566l1.997 1.154a1.81 1.81 0 0 0 1.81 0l1.997-1.154c.56-.323.905-.92.905-1.567v-5.315c0-.447.506-.71.87-.45A8.042 8.042 0 0 1 37.552 29Z" fill="#E6ECFF"/><path opacity=".7" d="M23.54 29.678c0 1.012.54 1.947 1.417 2.453l3.127 1.806a2.832 2.832 0 0 0 2.832 0l3.127-1.806a2.833 2.833 0 0 0 1.416-2.453v-6.093a8.101 8.101 0 0 0-1.283-1.141.551.551 0 0 0-.87.45v5.316a1.81 1.81 0 0 1-.904 1.566l-1.997 1.154a1.81 1.81 0 0 1-1.81 0l-1.997-1.154a1.81 1.81 0 0 1-.905-1.567v-5.315c0-.45-.508-.709-.874-.447a8.098 8.098 0 0 0-1.278 1.138v6.093Z" fill="#C4D1FF"/><defs><linearGradient id="a" x1="32.982" y1="22.341" x2="32.982" y2="45" gradientUnits="userSpaceOnUse"><stop stop-color="#0A33C1"/><stop offset="1" stop-color="#0A33C1" stop-opacity="0"/></linearGradient><linearGradient id="b" x1="35.268" y1="23.007" x2="35.268" y2="44.812" gradientUnits="userSpaceOnUse"><stop stop-color="#0A33C1"/><stop offset="1" stop-color="#0A33C1" stop-opacity="0"/></linearGradient><linearGradient id="c" x1="29.5" y1="34.041" x2="29.5" y2="43.48" gradientUnits="userSpaceOnUse"><stop stop-color="#0A33C1"/><stop offset="1" stop-color="#0A33C1" stop-opacity="0"/></linearGradient></defs></svg>
